X: 26011
T: Airdrie Lassies  [ABABAB]
R: jig
B: RSCDS 26-1
Z: 1997 by John Chambers <jc:trillian.mit.edu>
M: 6/8
L: 1/8
%--------------------
K: G
B \
| "G"G2B dcB | "D7"def "G"gdc | "G"BGB "Bm"dcB | "Am"cBc "D7"A2c \
| "G"G2B dcB | "D7"def "G"gdc | "G"BGB "Bm"dcB | "D7"def "G"g2 ||
a \
| "G"[b3d3B3] "Em"[g3B3] | "A7"{b}a^ga "D7"f=ga | "G"[g3d3B3] "A7"[e3^c3] | "D7"fef [fd][ge][af] \
| "G"[b3d3B3] "Em"[g3B3] | "A7"{b}a^ga "D7"f=ga | "G"[g3B3] "C"[e3c3] | "D7"def "G"[g3B3] ::|
%%center Book26/26011-Airdrie_Lassies_ABABAB-1.abc

%%sep 1 1 500
%%sep 1 1 500

